Newaita/actions/16/gnumeric-format-valign-top.svg

<svg height="16" viewBox="0 0 16 16" width="16" xmlns="http://www.w3.org/2000/svg"><g fill="#424242"><path d="m8.601562 6.085938h-1.324218v8.261718c0 .183594.148437.332032.332031.332032h.660156c.183594 0 .332031-.148438.332031-.332032zm0 0"/><path d="m5.621094 6.75h4.632812l-2.316406-3.308594zm0 0"/><path d="m1.652344 2.78125h12.570312c.183594 0 .332032-.148438.332032-.332031v-.660157c0-.183593-.148438-.332031-.332032-.332031h-12.570312c-.179688 0-.328125.148438-.328125.332031v.660157c0 .183593.148437.332031.328125.332031zm0 0"/></g></svg>

<?xml version="1.0" encoding="UTF-8"?>
<svg xmlns="http://www.w3.org/2000/svg" xmlns:xlink="http://www.w3.org/1999/xlink" width="16px" height="16px" viewBox="0 0 16 16" version="1.1">
<g id="surface1">
<path style=" stroke:none;fill-rule:nonzero;fill:rgb(25.882354%,25.882354%,25.882354%);fill-opacity:1;" d="M 8.601562 6.085938 L 7.277344 6.085938 L 7.277344 14.347656 C 7.277344 14.53125 7.425781 14.679688 7.609375 14.679688 L 8.269531 14.679688 C 8.453125 14.679688 8.601562 14.53125 8.601562 14.347656 Z M 8.601562 6.085938 "/>
<path style=" stroke:none;fill-rule:nonzero;fill:rgb(25.882354%,25.882354%,25.882354%);fill-opacity:1;" d="M 5.621094 6.75 L 10.253906 6.75 L 7.9375 3.441406 Z M 5.621094 6.75 "/>
<path style=" stroke:none;fill-rule:nonzero;fill:rgb(25.882354%,25.882354%,25.882354%);fill-opacity:1;" d="M 1.652344 2.78125 L 14.222656 2.78125 C 14.40625 2.78125 14.554688 2.632812 14.554688 2.449219 L 14.554688 1.789062 C 14.554688 1.605469 14.40625 1.457031 14.222656 1.457031 L 1.652344 1.457031 C 1.472656 1.457031 1.324219 1.605469 1.324219 1.789062 L 1.324219 2.449219 C 1.324219 2.632812 1.472656 2.78125 1.652344 2.78125 Z M 1.652344 2.78125 "/>
</g>
</svg>
